app/images/dest/icons/bath.svg

<svg width="24" height="24" viewBox="0 0 24 24" fill="none" xmlns="http://www.w3.org/2000/svg">
<path d="M22.9415 12.9764H20.4122V12.7464C20.4122 12.5337 20.2442 12.3624 20.0354 12.3624L15.4927 12.3626C15.2839 12.3626 15.1159 12.5339 15.1159 12.7466V12.9764H2.11405V3.77156C2.11405 2.59041 2.79801 1.51434 3.85625 1.03008C5.27689 0.379611 6.9567 0.973782 7.67662 2.37992L8.14465 3.29459C6.86328 3.56855 5.89606 4.72767 5.89606 6.1142C5.89606 6.32692 6.06413 6.49819 6.27286 6.49819H11.1709C11.3796 6.49819 11.5477 6.32692 11.5477 6.1142C11.5477 4.61016 10.4103 3.37272 8.96802 3.24559L8.34164 2.02523C7.43673 0.259649 5.32977 -0.48615 3.5469 0.330613C2.21732 0.93706 1.36074 2.28944 1.36074 3.77151V12.9763H1.05592C0.475232 12.9763 0 13.4582 0 14.0524C0 14.6467 0.475232 15.1285 1.05592 15.1285H1.35823V17.1386C1.35823 19.3298 2.68764 21.2104 4.56916 21.9908C3.84688 22.2892 3.19167 22.7513 2.66137 23.3579C2.52227 23.5169 2.53666 23.759 2.69251 23.9009C2.76449 23.9669 2.85337 23.9987 2.94209 23.9987C3.0452 23.9987 3.14848 23.9547 3.2228 23.8716C4.05307 22.9228 5.24573 22.3774 6.49599 22.3774H17.5013C18.7492 22.3774 19.9419 22.9228 20.7722 23.8716C20.9113 24.0306 21.149 24.0429 21.305 23.9033C21.461 23.7616 21.473 23.5193 21.3361 23.3603C20.8058 22.7563 20.1507 22.2916 19.4283 21.9932C21.3096 21.2155 22.6393 19.335 22.6393 17.141V15.1284H22.9441C23.5273 15.1284 24 14.6467 24 14.0524C23.9975 13.4582 23.5248 12.9763 22.9416 12.9763L22.9415 12.9764ZM10.7607 5.73016H6.68356C6.86116 4.74706 7.70816 4.00109 8.72089 4.00109C9.73361 4.00109 10.5831 4.74706 10.7607 5.73016ZM15.8696 16.5149H19.6612V17.5103H15.8696V16.5149ZM19.6589 13.1278V15.747H15.8673V13.1278H19.6589ZM0.753699 14.0522C0.753699 13.8809 0.890458 13.7416 1.05852 13.7416H15.1162V14.3603L1.73516 14.3605H1.05603C0.890484 14.3605 0.753725 14.2235 0.753725 14.0522H0.753699ZM21.8855 17.1385C21.8855 19.6011 19.9201 21.6064 17.5012 21.6064H6.49634C4.07968 21.6064 2.11212 19.6035 2.11212 17.1385V15.1283H15.1139V17.8942C15.1139 18.1069 15.282 18.2782 15.4907 18.2782H20.0335C20.2423 18.2782 20.4103 18.1069 20.4103 17.8942V15.1283H21.8837V17.1385H21.8855ZM22.9414 14.3605H20.4121V13.7418H22.9414C23.1094 13.7418 23.2437 13.8811 23.2437 14.0524C23.2437 14.2235 23.1094 14.3605 22.9414 14.3605Z" fill="inherit"/>
</svg>

<svg xmlns="http://www.w3.org/2000/svg" width="24" height="24" fill="none"><g clip-path="url(#a)"><path fill="#000" d="M22.942 12.976h-2.53v-.23a.38.38 0 0 0-.377-.384h-4.542a.38.38 0 0 0-.377.385v.23H2.114V3.771c0-1.182.684-2.258 1.742-2.742 1.42-.65 3.1-.056 3.82 1.35l.469.915c-1.282.274-2.249 1.433-2.249 2.82a.38.38 0 0 0 .377.383h4.898a.38.38 0 0 0 .377-.384c0-1.504-1.138-2.741-2.58-2.868l-.626-1.22C7.437.26 5.33-.487 3.547.33 2.217.937 1.36 2.289 1.36 3.77v9.205h-.305c-.58 0-1.056.482-1.056 1.076 0 .595.475 1.077 1.056 1.077h.302v2.01A5.246 5.246 0 0 0 4.57 21.99a5.135 5.135 0 0 0-1.908 1.367.39.39 0 0 0 .032.543c.071.066.16.098.25.098a.378.378 0 0 0 .28-.127 4.354 4.354 0 0 1 3.273-1.495h11.005c1.248 0 2.44.546 3.271 1.495.14.159.377.17.533.031a.391.391 0 0 0 .031-.543 5.164 5.164 0 0 0-1.908-1.367 5.24 5.24 0 0 0 3.211-4.852v-2.013h.305c.583 0 1.056-.481 1.056-1.076a1.07 1.07 0 0 0-1.058-1.076ZM10.76 5.73H6.684c.177-.983 1.024-1.729 2.037-1.729s1.862.746 2.04 1.73Zm5.109 10.785h3.791v.995h-3.79v-.995Zm3.789-3.387v2.619h-3.792v-2.62h3.792Zm-18.905.924c0-.171.136-.31.305-.31h14.057v.618H1.056a.306.306 0 0 1-.302-.308Zm21.131 3.087c0 2.462-1.965 4.467-4.384 4.467H6.496c-2.416 0-4.384-2.003-4.384-4.468v-2.01h13.002v2.766a.38.38 0 0 0 .377.384h4.543a.38.38 0 0 0 .376-.384v-2.766h1.474v2.01h.002Zm1.056-2.778h-2.529v-.62h2.53c.167 0 .302.14.302.311a.304.304 0 0 1-.303.309Z"/></g><defs><clipPath id="a"><path fill="#fff" d="M0 0h24v24H0z"/></clipPath></defs></svg>
